X: 3
T: Australian Waters
R: jig
M: 6/8
L: 1/8
K: Dmaj
d2D FED | =c3 ed^c | dAF GFE | FED fge |
d2D FED | =c3 ed^c | dAF GFE | FDC D3 :|
|: dcd efg | fed cBA | dcd efg | fdc def |
gbg faf | ecA ABc | dAF GFE | FDC DFA :|


Tune 2607	Setting 2607

